justvector/coroflot.svg

<?xml version="1.0" encoding="iso-8859-1"?>
<!-- Generator: Adobe Illustrator 15.0.0, SVG Export Plug-In . SVG Version: 6.00 Build 0)  -->
<!DOCTYPE svg PUBLIC "-//W3C//DTD SVG 1.1//EN" "http://www.w3.org/Graphics/SVG/1.1/DTD/svg11.dtd">
<svg version="1.1" id="Icons" xmlns="http://www.w3.org/2000/svg" xmlns:xlink="http://www.w3.org/1999/xlink" x="0px" y="0px"
	 width="100px" height="100px" viewBox="0 0 100 100" style="enable-background:new 0 0 100 100;" xml:space="preserve">
<path id="Coroflot" d="M42.928,63.801c0,2.276-1.851,4.12-4.131,4.12s-4.128-1.844-4.128-4.12c0-2.278,1.848-4.129,4.128-4.129
	S42.928,61.522,42.928,63.801z M88.5,59.345c0,12.026-9.761,21.773-21.792,21.773c-0.19,0-0.376-0.016-0.565-0.021
	C62.34,89.299,54.053,95,44.412,95c-13.235,0-23.962-10.72-23.962-23.946c0-10.528,6.816-19.452,16.274-22.656
	c0.35-16.231-5.674-26.972-12.621-26.344c-7.269,0.659-13.215,0.659-12.552-2.971c0.658-3.627,6.604,0.332,7.269-4.291
	c0.656-4.616-2.645-6.596,2.31-9.235c4.562-2.431,5.759,3.535,5.403,9.39c16.871-4.132,30.864,16.121,35.184,23.228
	c1.605-0.378,3.27-0.604,4.992-0.604C78.739,37.569,88.5,47.318,88.5,59.345z M42.228,47.227c0.72-0.065,1.446-0.11,2.184-0.11
	c1.383,0,2.729,0.142,4.05,0.367c2.386-3.66,5.841-6.55,9.92-8.246c-12.098-18.982-22.666-21.406-28.69-20.714
	C40.44,26.692,42.006,43.226,42.228,47.227z M63.217,71.054c0-8.292-5.388-15.319-12.854-17.811
	c-0.009,0.023-0.02,0.046-0.028,0.068c-1.368-0.457-2.795-0.748-4.282-0.878c0.009-0.028,0.021-0.053,0.03-0.081
	c-0.551-0.05-1.106-0.085-1.671-0.085c-10.387,0-18.805,8.415-18.805,18.786c0,10.376,8.418,18.792,18.805,18.792
	c7.026,0,13.143-3.858,16.371-9.563c-0.025-0.007-0.05-0.012-0.074-0.02c0.715-1.264,1.284-2.606,1.693-4.028
	c0.023,0.005,0.048,0.009,0.07,0.014C62.948,74.597,63.217,72.858,63.217,71.054z M84.214,59.345
	c0-9.664-7.843-17.492-17.506-17.492c-5.643,0-10.632,2.683-13.817,6.835c9.043,3.424,15.482,12.134,15.482,22.366
	c0,1.979-0.267,3.892-0.719,5.731C76.874,76.291,84.214,68.681,84.214,59.345z"/>
</svg>

<?xml version="1.0" encoding="UTF-8" standalone="no"?>
<!DOCTYPE svg PUBLIC "-//W3C//DTD SVG 1.1//EN" "http://www.w3.org/Graphics/SVG/1.1/DTD/svg11.dtd">
<svg width="100%" height="100%" viewBox="0 0 100 100" version="1.1" xmlns="http://www.w3.org/2000/svg" xmlns:xlink="http://www.w3.org/1999/xlink" xml:space="preserve" xmlns:serif="http://www.serif.com/" style="fill-rule:evenodd;clip-rule:evenodd;stroke-linejoin:round;stroke-miterlimit:2;">
    <g id="Coroflot" transform="matrix(1.34955,0,0,1.34955,-23.9277,-36.9265)">
        <path d="M42.928,63.801C42.928,66.077 41.077,67.921 38.797,67.921C36.517,67.921 34.669,66.077 34.669,63.801C34.669,61.523 36.517,59.672 38.797,59.672C41.077,59.672 42.928,61.522 42.928,63.801ZM88.5,59.345C88.5,71.371 78.739,81.118 66.708,81.118C66.518,81.118 66.332,81.102 66.143,81.097C62.34,89.299 54.053,95 44.412,95C31.177,95 20.45,84.28 20.45,71.054C20.45,60.526 27.266,51.602 36.724,48.398C37.074,32.167 57.397,31.068 61.717,38.175C63.322,37.797 64.987,37.571 66.709,37.571C78.739,37.569 88.5,47.318 88.5,59.345ZM42.228,47.227C42.948,47.162 43.674,47.117 44.412,47.117C45.795,47.117 47.141,47.259 48.462,47.484C50.848,43.824 54.303,40.934 58.382,39.238C54.625,33.343 42.075,44.468 42.228,47.227ZM63.217,71.054C63.217,62.762 57.829,55.735 50.363,53.243C50.354,53.266 50.343,53.289 50.335,53.311C48.967,52.854 47.54,52.563 46.053,52.433C46.062,52.405 46.074,52.38 46.083,52.352C45.532,52.302 44.977,52.267 44.412,52.267C34.025,52.267 25.607,60.682 25.607,71.053C25.607,81.429 34.025,89.845 44.412,89.845C51.438,89.845 57.555,85.987 60.783,80.282C60.758,80.275 60.733,80.27 60.709,80.262C61.424,78.998 61.993,77.656 62.402,76.234C62.425,76.239 62.45,76.243 62.472,76.248C62.948,74.597 63.217,72.858 63.217,71.054ZM84.214,59.345C84.214,49.681 76.371,41.853 66.708,41.853C61.065,41.853 56.076,44.536 52.891,48.688C61.934,52.112 68.373,60.822 68.373,71.054C68.373,73.033 68.106,74.946 67.654,76.785C76.874,76.291 84.214,68.681 84.214,59.345Z" style="fill-rule:nonzero;"/>
    </g>
</svg>
